X: 21789
T: King's Fancy, The
R: jig
M: 6/8
K: Dmajor
|:A|f2 d dcd|Bdg A2 f|GBe F2 d|c^Bc =bb/a/g|
f2 d dcd|B/c/dg A2 f|G/A/Be F2 d|c^Bc d2:|
K: Bmin
|:c|f2 B B^AB|fdB B^AB|c2 F F^EF|f/g/af edc|f2 B B2 B|
fdB BB/c/d|1 c2 F gfe|dB^A B2:|2 c2 g fec|dB^A B2||

